X:438
T: Luniao ludupi
N: C1473
O: China,Hunan, Yiyang
S: I, 558]
N: +++ 3.letzte Zeile eine 5Tole verndert +++
R: Shange, Kuaiban shange]
M: 3/4
L: 1/16
K: D
e2B2B2B6 | e2A2B2d6 |
e2e2ded2BB3 | d2e2ded6 |
e2e2Bd2dBB3 | d2B2(3e2B2d2d4
d2e2d2B6 | e2B2e2B6 |
d2deABded4 | d2e2d2B6 |
AA2Bd2B6 | d2d2Bedede3 |
deded6^A2 | B12

@@@ Tune index: 6439
